assets/images/icons/notification.svg

<svg width="16" height="16" viewBox="0 0 16 16" fill="none" xmlns="http://www.w3.org/2000/svg">
<path d="M7.99999 16C8.48724 16.0002 8.9578 15.8225 9.3233 15.5002C9.68879 15.178 9.92408 14.7334 9.98499 14.25C10.002 14.113 9.88799 14 9.74999 14H6.24999C6.11199 14 5.99799 14.113 6.01499 14.25C6.0759 14.7334 6.31119 15.178 6.67669 15.5002C7.04218 15.8225 7.51274 16.0002 7.99999 16Z" fill="white"/>
<path fill-rule="evenodd" clip-rule="evenodd" d="M8.00005 1.5C7.07179 1.5 6.18155 1.86875 5.52517 2.52513C4.8688 3.1815 4.50005 4.07174 4.50005 5V7.947C4.50005 8.293 4.39805 8.63 4.20605 8.917L2.50305 11.473C2.50108 11.476 2.50004 11.4794 2.50005 11.483L2.50105 11.489C2.50105 11.491 2.50305 11.493 2.50505 11.495C2.50674 11.4967 2.50878 11.4981 2.51105 11.499L2.51805 11.5H13.482L13.489 11.499C13.4913 11.4981 13.4934 11.4968 13.495 11.495C13.4968 11.4933 13.4982 11.4913 13.499 11.489L13.5 11.482C13.5001 11.4784 13.4991 11.4749 13.497 11.472L11.794 8.918C11.6025 8.63075 11.5002 8.29326 11.5 7.948V5C11.5 4.07174 11.1313 3.1815 10.4749 2.52513C9.81854 1.86875 8.9283 1.5 8.00005 1.5V1.5ZM3.00005 5C3.00005 3.67392 3.52683 2.40215 4.46451 1.46447C5.40219 0.526784 6.67396 0 8.00005 0C9.32613 0 10.5979 0.526784 11.5356 1.46447C12.4733 2.40215 13 3.67392 13 5V7.947C13 7.997 13.015 8.045 13.042 8.086L14.745 10.641C14.8972 10.8696 14.9844 11.1352 14.9976 11.4095C15.0107 11.6837 14.9492 11.9564 14.8196 12.1985C14.69 12.4406 14.4971 12.643 14.2616 12.7841C14.026 12.9253 13.7566 12.9999 13.482 13H2.51805C2.2433 13 1.97371 12.9254 1.73802 12.7842C1.50232 12.643 1.30937 12.4405 1.17973 12.1983C1.05009 11.956 0.988629 11.6831 1.00189 11.4087C1.01516 11.1343 1.10265 10.8686 1.25505 10.64L2.95805 8.086C2.98549 8.04484 3.00011 7.99647 3.00005 7.947V5Z" fill="white"/>
</svg>

<svg xmlns="http://www.w3.org/2000/svg" class="octicon octicon-bell" viewBox="0 0 16 16" version="1.1" aria-hidden="true"><path d="M8 16a2 2 0 001.985-1.75c.017-.137-.097-.25-.235-.25h-3.5c-.138 0-.252.113-.235.25A2 2 0 008 16z"/><path fill-rule="evenodd" d="M8 1.5A3.5 3.5 0 004.5 5v2.947c0 .346-.102.683-.294.97l-1.703 2.556a.018.018 0 00-.003.01l.001.006c0 .002.002.004.004.006a.017.017 0 00.006.004l.007.001h10.964l.007-.001a.016.016 0 00.006-.004.016.016 0 00.004-.006l.001-.007a.017.017 0 00-.003-.01l-1.703-2.554a1.75 1.75 0 01-.294-.97V5A3.5 3.5 0 008 1.5zM3 5a5 5 0 0110 0v2.947c0 .05.015.098.042.139l1.703 2.555A1.518 1.518 0 0113.482 13H2.518a1.518 1.518 0 01-1.263-2.36l1.703-2.554A.25.25 0 003 7.947V5z"/></svg>
